;FLAVOR:Marlin
;TIME:8650
;Filament used: 8.66615m
;Layer height: 0.15
;MINX:28.56
;MINY:38.311
;MINZ:0.3
;MAXX:171.44
;MAXY:159.839
;MAXZ:3
;Generated with Cura_SteamEngine 4.9.1
M140 S100
M105
M190 S100
M104 S238
M105
M109 S238
M82 ;absolute extrusion mode
G21 ;metric values
G90 ;absolute positioning
M82 ;set extruder to absolute mode
M107 ;start with the fan off
G28 X0 Y0 ;move X/Y to min endstops
G28 Z0 ;move Z to min endstops
G1 Z15.0 F9000 ;move the platform down 15mm
G92 E0 ;zero the extruded length
G1 F200 E3 ;extrude 3mm of feed stock
G92 E0 ;zero the extruded length again
G1 F9000
;Put printing message on LCD screen
M117 Printing...
G92 E0
G92 E0
G1 F1500 E-6.5
;LAYER_COUNT:19
;LAYER:0
M107
G0 F3600 X32.332 Y54.685 Z0.3
;TYPE:SKIRT
G1 F1500 E0
G1 F1800 X33.027 Y54.27 E0.0424
G1 X33.759 Y53.926 E0.08477
G1 X34.522 Y53.656 E0.12717
G1 X35.307 Y53.462 E0.16953
G1 X36.108 Y53.347 E0.21192
G1 X36.873 Y53.311 E0.25204
G1 X69.31 Y53.311 E1.95124
G1 X69.31 Y46.624 E2.30154
G1 X69.35 Y45.816 E2.34392
G1 X69.47 Y45.015 E2.38635
G1 X69.667 Y44.231 E2.42869
G1 X69.942 Y43.47 E2.47108
G1 X70.29 Y42.739 E2.51349
G1 X70.709 Y42.047 E2.55587
G1 X71.193 Y41.399 E2.59824
G1 X71.709 Y40.833 E2.63836
G1 X71.832 Y40.71 E2.64747
G1 X72.432 Y40.167 E2.68986
G1 X73.082 Y39.685 E2.73225
G1 X73.777 Y39.27 E2.77466
G1 X74.509 Y38.926 E2.81703
G1 X75.272 Y38.656 E2.85942
G1 X76.057 Y38.462 E2.90178
G1 X76.858 Y38.347 E2.94417
G1 X77.623 Y38.311 E2.98429
G1 X87.377 Y38.311 E3.49525
G1 X88.185 Y38.351 E3.53763
G1 X88.986 Y38.471 E3.58006
G1 X89.77 Y38.668 E3.62241
G1 X90.531 Y38.943 E3.66479
G1 X91.262 Y39.291 E3.70721
G1 X91.954 Y39.71 E3.74958
G1 X92.602 Y40.194 E3.79195
G1 X93.168 Y40.71 E3.83207
G1 X93.291 Y40.833 E3.84119
G1 X93.834 Y41.433 E3.88358
G1 X94.316 Y42.083 E3.92597
G1 X94.731 Y42.778 E3.96837
G1 X95.075 Y43.51 E4.01074
G1 X95.345 Y44.273 E4.05314
G1 X95.539 Y45.058 E4.0955
G1 X95.654 Y45.859 E4.13789
G1 X95.69 Y46.624 E4.17801
G1 X95.69 Y53.311 E4.5283
G1 X104.31 Y53.311 E4.97986
G1 X104.31 Y46.624 E5.33016
G1 X104.35 Y45.816 E5.37253
G1 X104.47 Y45.015 E5.41496
G1 X104.667 Y44.231 E5.45731
G1 X104.942 Y43.47 E5.4997
G1 X105.29 Y42.739 E5.54211
G1 X105.709 Y42.047 E5.58449
G1 X106.193 Y41.399 E5.62685
G1 X106.709 Y40.833 E5.66698
G1 X106.832 Y40.71 E5.67609
G1 X107.432 Y40.167 E5.71848
G1 X108.082 Y39.685 E5.76087
G1 X108.777 Y39.27 E5.80327
G1 X109.509 Y38.926 E5.84564
G1 X110.272 Y38.656 E5.88804
G1 X111.057 Y38.462 E5.9304
G1 X111.858 Y38.347 E5.97279
G1 X112.623 Y38.311 E6.01291
G1 X122.377 Y38.311 E6.52387
G1 X123.185 Y38.351 E6.56625
G1 X123.986 Y38.471 E6.60868
G1 X124.77 Y38.668 E6.65102
G1 X125.531 Y38.943 E6.69341
G1 X126.262 Y39.291 E6.73582
G1 X126.954 Y39.71 E6.7782
G1 X127.602 Y40.194 E6.82057
G1 X128.168 Y40.71 E6.86069
G1 X128.291 Y40.833 E6.8698
G1 X128.834 Y41.433 E6.91219
G1 X129.316 Y42.083 E6.95458
G1 X129.731 Y42.778 E6.99699
G1 X130.075 Y43.51 E7.03936
G1 X130.345 Y44.273 E7.08176
G1 X130.539 Y45.058 E7.12411
G1 X130.654 Y45.859 E7.1665
G1 X130.69 Y46.624 E7.20662
G1 X130.69 Y53.311 E7.55692
G1 X163.127 Y53.311 E9.25612
G1 X163.935 Y53.351 E9.2985
G1 X164.736 Y53.471 E9.34093
G1 X165.52 Y53.668 E9.38328
G1 X166.281 Y53.943 E9.42566
G1 X167.012 Y54.291 E9.46808
G1 X167.704 Y54.71 E9.51045
G1 X168.352 Y55.194 E9.55282
G1 X168.918 Y55.71 E9.59294
G1 X169.041 Y55.833 E9.60206
G1 X169.584 Y56.433 E9.64445
G1 X170.066 Y57.083 E9.68684
G1 X170.481 Y57.778 E9.72924
G1 X170.825 Y58.51 E9.77161
G1 X171.095 Y59.273 E9.81401
G1 X171.289 Y60.058 E9.85637
G1 X171.404 Y60.859 E9.89876
G1 X171.44 Y61.624 E9.93888
G1 X171.44 Y94.516 E11.66191
G1 X171.416 Y95.139 E11.69457
G1 X171.372 Y95.716 E11.72489
G1 X171.271 Y96.519 E11.76728
G1 X171.19 Y96.919 E11.78866
G1 X171.056 Y97.505 E11.82015
G1 X170.708 Y98.639 E11.88229
G1 X170.494 Y99.191 E11.9133
G1 X170.273 Y99.709 E11.94281
G1 X170.116 Y100.009 E11.96054
G1 X170.227 Y100.212 E11.97266
G1 X170.463 Y100.732 E12.00258
G1 X170.76 Y101.485 E12.04498
G1 X170.892 Y101.91 E12.06829
G1 X171.061 Y102.514 E12.10115
G1 X171.24 Y103.303 E12.14353
G1 X171.301 Y103.71 E12.16509
G1 X171.372 Y104.281 E12.19523
G1 X171.433 Y105.09 E12.23773
G1 X171.44 Y105.495 E12.25895
G1 X171.44 Y138.376 E13.98141
G1 X171.4 Y139.184 E14.02379
G1 X171.28 Y139.985 E14.06622
G1 X171.083 Y140.769 E14.10857
G1 X170.808 Y141.53 E14.15095
G1 X170.46 Y142.261 E14.19336
G1 X170.041 Y142.953 E14.23574
G1 X169.557 Y143.601 E14.27811
G1 X169.041 Y144.167 E14.31823
G1 X168.918 Y144.29 E14.32734
G1 X168.318 Y144.833 E14.36974
G1 X167.668 Y145.315 E14.41213
G1 X166.973 Y145.73 E14.45453
G1 X166.241 Y146.074 E14.4969
G1 X165.478 Y146.344 E14.5393
G1 X164.693 Y146.538 E14.58166
G1 X163.892 Y146.653 E14.62405
G1 X163.127 Y146.689 E14.66417
G1 X130.69 Y146.689 E16.36337
G1 X130.69 Y151.526 E16.61675
G1 X130.65 Y152.334 E16.65913
G1 X130.53 Y153.135 E16.70156
G1 X130.333 Y153.919 E16.74391
G1 X130.058 Y154.68 E16.78629
G1 X129.71 Y155.411 E16.82871
G1 X129.291 Y156.103 E16.87108
G1 X128.807 Y156.751 E16.91345
G1 X128.291 Y157.317 E16.95357
G1 X128.168 Y157.44 E16.96269
G1 X127.568 Y157.983 E17.00508
G1 X126.918 Y158.465 E17.04747
G1 X126.223 Y158.88 E17.08987
G1 X125.491 Y159.224 E17.13224
G1 X124.728 Y159.494 E17.17464
G1 X123.943 Y159.688 E17.217
G1 X123.142 Y159.803 E17.25939
G1 X122.377 Y159.839 E17.29951
G1 X112.623 Y159.839 E17.81047
G1 X111.815 Y159.799 E17.85285
G1 X111.014 Y159.679 E17.89527
G1 X110.23 Y159.482 E17.93762
G1 X109.469 Y159.207 E17.98001
G1 X108.738 Y158.859 E18.02242
G1 X108.046 Y158.44 E18.0648
G1 X107.398 Y157.956 E18.10717
G1 X106.832 Y157.44 E18.14729
G1 X106.709 Y157.317 E18.1564
G1 X106.166 Y156.717 E18.19879
G1 X105.684 Y156.067 E18.24118
G1 X105.269 Y155.372 E18.28359
G1 X104.925 Y154.64 E18.32595
G1 X104.655 Y153.877 E18.36835
G1 X104.461 Y153.092 E18.41071
G1 X104.346 Y152.291 E18.4531
G1 X104.31 Y151.526 E18.49322
G1 X104.31 Y146.689 E18.74661
G1 X95.69 Y146.689 E19.19816
G1 X95.69 Y151.526 E19.45155
G1 X95.65 Y152.334 E19.49393
G1 X95.53 Y153.135 E19.53635
G1 X95.333 Y153.919 E19.5787
G1 X95.058 Y154.68 E19.62109
G1 X94.71 Y155.411 E19.6635
G1 X94.291 Y156.103 E19.70588
G1 X93.807 Y156.751 E19.74825
G1 X93.291 Y157.317 E19.78837
G1 X93.168 Y157.44 E19.79748
G1 X92.568 Y157.983 E19.83987
G1 X91.918 Y158.465 E19.88226
G1 X91.223 Y158.88 E19.92467
G1 X90.491 Y159.224 E19.96703
G1 X89.728 Y159.494 E20.00943
G1 X88.943 Y159.688 E20.05179
G1 X88.142 Y159.803 E20.09418
G1 X87.377 Y159.839 E20.1343
G1 X77.623 Y159.839 E20.64526
G1 X76.815 Y159.799 E20.68764
G1 X76.014 Y159.679 E20.73007
G1 X75.23 Y159.482 E20.77241
G1 X74.469 Y159.207 E20.8148
G1 X73.738 Y158.859 E20.85721
G1 X73.046 Y158.44 E20.89959
G1 X72.398 Y157.956 E20.94196
G1 X71.832 Y157.44 E20.98208
G1 X71.709 Y157.317 E20.99119
G1 X71.166 Y156.717 E21.03358
G1 X70.684 Y156.067 E21.07598
G1 X70.269 Y155.372 E21.11838
G1 X69.925 Y154.64 E21.16075
G1 X69.655 Y153.877 E21.20315
G1 X69.461 Y153.092 E21.24551
G1 X69.346 Y152.291 E21.2879
G1 X69.31 Y151.526 E21.32801
G1 X69.31 Y146.689 E21.5814
G1 X36.873 Y146.689 E23.2806
G1 X36.065 Y146.649 E23.32298
G1 X35.264 Y146.529 E23.36541
G1 X34.48 Y146.332 E23.40776
G1 X33.719 Y146.057 E23.45014
G1 X32.988 Y145.709 E23.49255
G1 X32.296 Y145.29 E23.53493
G1 X31.648 Y144.806 E23.5773
G1 X31.082 Y144.29 E23.61742
G1 X30.959 Y144.167 E23.62653
G1 X30.416 Y143.567 E23.66893
G1 X29.934 Y142.917 E23.71132
G1 X29.519 Y142.222 E23.75372
G1 X29.175 Y141.49 E23.79609
G1 X28.905 Y140.727 E23.83849
G1 X28.711 Y139.942 E23.88085
G1 X28.596 Y139.141 E23.92324
G1 X28.56 Y138.376 E23.96336
G1 X28.56 Y105.492 E25.68597
G1 X28.583 Y104.873 E25.71842
G1 X28.628 Y104.279 E25.74963
G1 X28.729 Y103.476 E25.79203
G1 X28.815 Y103.057 E25.81443
G1 X28.949 Y102.476 E25.84567
G1 X29.303 Y101.33 E25.9085
G1 X29.518 Y100.781 E25.93938
G1 X29.866 Y100.012 E25.9836
G1 X29.776 Y99.791 E25.9961
G1 X29.536 Y99.263 E26.02648
G1 X29.238 Y98.511 E26.06886
G1 X29.097 Y98.051 E26.09406
G1 X28.931 Y97.449 E26.12677
G1 X28.7 Y96.293 E26.18853
G1 X28.629 Y95.728 E26.21836
G1 X28.568 Y94.91 E26.26133
G1 X28.56 Y94.505 E26.28255
G1 X28.56 Y61.624 E28.00501
G1 X28.6 Y60.816 E28.04739
G1 X28.72 Y60.015 E28.08982
G1 X28.917 Y59.231 E28.13216
G1 X29.192 Y58.47 E28.17455
G1 X29.54 Y57.739 E28.21696
G1 X29.959 Y57.047 E28.25934
G1 X30.443 Y56.399 E28.30171
G1 X30.959 Y55.833 E28.34183
G1 X31.082 Y55.71 E28.35094
G1 X31.682 Y55.167 E28.39333
G1 X32.332 Y54.685 E28.43572
G0 F3600 X32.599 Y55.012
G1 F1800 X33.278 Y54.612 E28.47701
G1 X33.995 Y54.284 E28.51831
G1 X34.741 Y54.029 E28.55961
G1 X35.509 Y53.852 E28.60089
G1 X36.291 Y53.753 E28.64219
G1 X36.873 Y53.731 E28.6727
G1 X69.73 Y53.731 E30.3939
G1 X69.73 Y46.624 E30.7662
G1 X69.77 Y45.837 E30.80748
G1 X69.889 Y45.058 E30.84876
G1 X70.087 Y44.295 E30.89005
G1 X70.361 Y43.556 E30.93134
G1 X70.709 Y42.849 E30.97262
G1 X71.126 Y42.18 E31.01392
G1 X71.609 Y41.557 E31.05521
G1 X72.006 Y41.13 E31.08575
G1 X72.129 Y41.007 E31.09486
G1 X72.714 Y40.478 E31.13618
G1 X73.349 Y40.012 E31.17744
G1 X74.028 Y39.612 E31.21872
G1 X74.745 Y39.284 E31.26003
G1 X75.491 Y39.029 E31.30133
G1 X76.259 Y38.852 E31.34261
G1 X77.041 Y38.753 E31.3839
G1 X77.623 Y38.731 E31.41441
G1 X87.377 Y38.731 E31.92537
G1 X88.164 Y38.771 E31.96665
G1 X88.943 Y38.89 E32.00794
G1 X89.706 Y39.088 E32.04923
G1 X90.445 Y39.362 E32.09052
G1 X91.152 Y39.71 E32.1318
G1 X91.821 Y40.127 E32.17309
G1 X92.444 Y40.61 E32.21439
G1 X92.871 Y41.007 E32.24493
G1 X92.994 Y41.13 E32.25404
G1 X93.523 Y41.715 E32.29536
G1 X93.989 Y42.35 E32.33662
G1 X94.389 Y43.029 E32.3779
G1 X94.717 Y43.746 E32.4192
G1 X94.972 Y44.492 E32.4605
G1 X95.149 Y45.26 E32.50179
G1 X95.248 Y46.042 E32.54308
G1 X95.27 Y46.624 E32.57359
G1 X95.27 Y53.731 E32.94589
G1 X104.73 Y53.731 E33.44145
G1 X104.73 Y46.624 E33.81375
G1 X104.77 Y45.837 E33.85503
G1 X104.889 Y45.058 E33.89631
G1 X105.087 Y44.295 E33.9376
G1 X105.361 Y43.556 E33.97889
G1 X105.709 Y42.849 E34.02017
G1 X106.126 Y42.18 E34.06146
G1 X106.609 Y41.557 E34.10276
G1 X107.006 Y41.13 E34.1333
G1 X107.129 Y41.007 E34.14241
G1 X107.714 Y40.478 E34.18373
G1 X108.349 Y40.012 E34.22499
G1 X109.028 Y39.612 E34.26627
G1 X109.745 Y39.284 E34.30758
G1 X110.491 Y39.029 E34.34888
G1 X111.259 Y38.852 E34.39016
G1 X112.041 Y38.753 E34.43145
G1 X112.623 Y38.731 E34.46196
G1 X122.377 Y38.731 E34.97292
G1 X123.164 Y38.771 E35.0142
G1 X123.943 Y38.89 E35.05548
G1 X124.706 Y39.088 E35.09678
G1 X125.445 Y39.362 E35.13807
G1 X126.152 Y39.71 E35.17934
G1 X126.821 Y40.127 E35.22064
G1 X127.444 Y40.61 E35.26194
G1 X127.871 Y41.007 E35.29248
G1 X127.994 Y41.13 E35.30159
G1 X128.523 Y41.715 E35.34291
G1 X128.989 Y42.35 E35.38417
G1 X129.389 Y43.029 E35.42545
G1 X129.717 Y43.746 E35.46675
G1 X129.972 Y44.492 E35.50805
G1 X130.149 Y45.26 E35.54934
G1 X130.248 Y46.042 E35.59063
G1 X130.27 Y46.624 E35.62114
G1 X130.27 Y53.731 E35.99344
G1 X163.127 Y53.731 E37.71464
G1 X163.914 Y53.771 E37.75592
G1 X164.693 Y53.89 E37.7972
G1 X165.456 Y54.088 E37.8385
G1 X166.195 Y54.362 E37.87978
G1 X166.902 Y54.71 E37.92106
G1 X167.571 Y55.127 E37.96236
G1 X168.194 Y55.61 E38.00365
G1 X168.621 Y56.007 E38.0342
G1 X168.744 Y56.13 E38.04331
G1 X169.273 Y56.715 E38.08463
G1 X169.739 Y57.35 E38.12589
G1 X170.139 Y58.029 E38.16717
G1 X170.467 Y58.746 E38.20847
G1 X170.722 Y59.492 E38.24977
G1 X170.899 Y60.26 E38.29106
G1 X170.998 Y61.042 E38.33235
G1 X171.02 Y61.624 E38.36286
G1 X171.02 Y94.516 E40.0859
G1 X170.998 Y95.107 E40.11688
G1 X170.954 Y95.684 E40.14719
G1 X170.78 Y96.825 E40.20765
G1 X170.646 Y97.411 E40.23914
G1 X170.317 Y98.488 E40.29813
G1 X170.103 Y99.04 E40.32915
G1 X169.892 Y99.532 E40.35719
G1 X169.64 Y100.013 E40.38564
G1 X169.844 Y100.386 E40.40791
G1 X170.08 Y100.906 E40.43782
G1 X170.369 Y101.639 E40.4791
G1 X170.488 Y102.023 E40.50016
G1 X170.657 Y102.627 E40.53301
G1 X170.885 Y103.762 E40.59366
G1 X170.956 Y104.333 E40.6238
G1 X171.013 Y105.101 E40.66414
G1 X171.02 Y105.495 E40.68478
G1 X171.02 Y138.376 E42.40725
G1 X170.98 Y139.163 E42.44853
G1 X170.861 Y139.942 E42.48981
G1 X170.663 Y140.705 E42.5311
G1 X170.389 Y141.444 E42.57239
G1 X170.041 Y142.151 E42.61367
G1 X169.624 Y142.82 E42.65496
G1 X169.141 Y143.443 E42.69626
G1 X168.744 Y143.87 E42.7268
G1 X168.621 Y143.993 E42.73591
G1 X168.036 Y144.522 E42.77723
G1 X167.401 Y144.988 E42.81849
G1 X166.722 Y145.388 E42.85977
G1 X166.005 Y145.716 E42.90108
G1 X165.259 Y145.971 E42.94237
G1 X164.491 Y146.148 E42.98366
G1 X163.709 Y146.247 E43.02495
G1 X163.127 Y146.269 E43.05546
G1 X130.27 Y146.269 E44.77667
G1 X130.27 Y151.526 E45.05205
G1 X130.23 Y152.313 E45.09333
G1 X130.111 Y153.092 E45.13461
G1 X129.913 Y153.855 E45.17591
G1 X129.639 Y154.594 E45.21719
G1 X129.291 Y155.301 E45.25847
G1 X128.874 Y155.97 E45.29977
G1 X128.391 Y156.593 E45.34106
G1 X127.994 Y157.02 E45.37161
G1 X127.871 Y157.143 E45.38072
G1 X127.286 Y157.672 E45.42204
G1 X126.651 Y158.138 E45.4633
G1 X125.972 Y158.538 E45.50458
G1 X125.255 Y158.866 E45.54588
G1 X124.509 Y159.121 E45.58718
G1 X123.741 Y159.298 E45.62847
G1 X122.959 Y159.397 E45.66976
G1 X122.377 Y159.419 E45.70027
G1 X112.623 Y159.419 E46.21123
G1 X111.836 Y159.379 E46.25251
G1 X111.057 Y159.26 E46.29379
G1 X110.294 Y159.062 E46.33508
G1 X109.555 Y158.788 E46.37637
G1 X108.848 Y158.44 E46.41765
G1 X108.179 Y158.023 E46.45895
G1 X107.556 Y157.54 E46.50024
G1 X107.129 Y157.143 E46.53078
G1 X107.006 Y157.02 E46.5399
G1 X106.477 Y156.435 E46.58121
G1 X106.011 Y155.8 E46.62247
G1 X105.611 Y155.121 E46.66376
G1 X105.283 Y154.404 E46.70506
G1 X105.028 Y153.658 E46.74636
G1 X104.851 Y152.89 E46.78764
G1 X104.752 Y152.108 E46.82894
G1 X104.73 Y151.526 E46.85945
G1 X104.73 Y146.269 E47.13483
G1 X95.27 Y146.269 E47.63039
G1 X95.27 Y151.526 E47.90578
G1 X95.23 Y152.313 E47.94706
G1 X95.111 Y153.092 E47.98834
G1 X94.913 Y153.855 E48.02963
G1 X94.639 Y154.594 E48.07092
G1 X94.291 Y155.301 E48.1122
G1 X93.874 Y155.97 E48.1535
G1 X93.391 Y156.593 E48.19479
G1 X92.994 Y157.02 E48.22533
G1 X92.871 Y157.143 E48.23444
G1 X92.286 Y157.672 E48.27576
G1 X91.651 Y158.138 E48.31702
G1 X90.972 Y158.538 E48.3583
G1 X90.255 Y158.866 E48.39961
G1 X89.509 Y159.121 E48.44091
G1 X88.741 Y159.298 E48.48219
G1 X87.959 Y159.397 E48.52348
G1 X87.377 Y159.419 E48.55399
G1 X77.623 Y159.419 E49.06495
G1 X76.836 Y159.379 E49.10623
G1 X76.057 Y159.26 E49.14752
G1 X75.294 Y159.062 E49.18881
G1 X74.555 Y158.788 E49.2301
G1 X73.848 Y158.44 E49.27138
G1 X73.179 Y158.023 E49.31267
G1 X72.556 Y157.54 E49.35397
G1 X72.129 Y157.143 E49.38451
G1 X72.006 Y157.02 E49.39362
G1 X71.477 Y156.435 E49.43494
G1 X71.011 Y155.8 E49.4762
G1 X70.611 Y155.121 E49.51748
G1 X70.283 Y154.404 E49.55878
G1 X70.028 Y153.658 E49.60008
G1 X69.851 Y152.89 E49.64137
G1 X69.752 Y152.108 E49.68266
G1 X69.73 Y151.526 E49.71317
G1 X69.73 Y146.269 E49.98856
G1 X36.873 Y146.269 E51.70976
G1 X36.086 Y146.229 E51.75104
G1 X35.307 Y146.11 E51.79232
G1 X34.544 Y145.912 E51.83362
G1 X33.805 Y145.638 E51.8749
G1 X33.098 Y145.29 E51.91618
G1 X32.429 Y144.873 E51.95748
G1 X31.806 Y144.39 E51.99877
G1 X31.379 Y143.993 E52.02932
G1 X31.256 Y143.87 E52.03843
G1 X30.727 Y143.285 E52.07975
G1 X30.261 Y142.65 E52.12101
G1 X29.861 Y141.971 E52.16229
G1 X29.533 Y141.254 E52.20359
G1 X29.278 Y140.508 E52.24489
G1 X29.101 Y139.74 E52.28618
G1 X29.002 Y138.958 E52.32747
G1 X28.98 Y138.376 E52.35798
G1 X28.98 Y105.492 E54.0806
G1 X29.002 Y104.905 E54.11137
G1 X29.047 Y104.311 E54.14257
G1 X29.224 Y103.152 E54.20399
G1 X29.358 Y102.571 E54.23523
G1 X29.694 Y101.484 E54.29483
G1 X29.909 Y100.935 E54.32571
G1 X30.239 Y100.204 E54.36773
G1 X30.356 Y99.982 E54.38087
G1 X30.158 Y99.617 E54.40263
G1 X29.918 Y99.089 E54.43301
G1 X29.629 Y98.356 E54.47428
G1 X29.502 Y97.939 E54.49712
G1 X29.336 Y97.337 E54.52983
G1 X29.117 Y96.241 E54.58838
G1 X29.046 Y95.676 E54.61821
G1 X28.987 Y94.899 E54.65903
G1 X28.98 Y94.505 E54.67967
G1 X28.98 Y61.624 E56.40213
G1 X29.02 Y60.837 E56.44341
G1 X29.139 Y60.058 E56.48469
G1 X29.337 Y59.295 E56.52599
G1 X29.611 Y58.556 E56.56728
G1 X29.959 Y57.849 E56.60856
G1 X30.376 Y57.18 E56.64985
