;FLAVOR:Marlin
;TIME:351
;Filament used: 0.138544m
;Layer height: 0.1
;MINX:92.5
;MINY:92.5
;MINZ:0.3
;MAXX:107.5
;MAXY:107.5
;MAXZ:6
;Generated with Cura_SteamEngine 4.9.1
M140 S100
M105
M190 S100
M104 S238
M105
M109 S238
M82 ;absolute extrusion mode
G21 ;metric values
G90 ;absolute positioning
M82 ;set extruder to absolute mode
M107 ;start with the fan off
G28 X0 Y0 ;move X/Y to min endstops
G28 Z0 ;move Z to min endstops
G1 Z15.0 F9000 ;move the platform down 15mm
G92 E0 ;zero the extruded length
G1 F200 E3 ;extrude 3mm of feed stock
G92 E0 ;zero the extruded length again
G1 F9000
;Put printing message on LCD screen
M117 Printing...
G92 E0
G92 E0
;LAYER_COUNT:58
;LAYER:0
M107
G0 F3600 X93.816 Y94.13 Z0.3
;TYPE:SKIRT
G1 F1800 X94.13 Y93.816 E0.02215
G1 X94.657 Y93.396 E0.05577
G1 X95.038 Y93.157 E0.07821
G1 X95.643 Y92.866 E0.11171
G1 X96.067 Y92.718 E0.13411
G1 X96.721 Y92.569 E0.16758
G1 X97.501 Y92.5 E0.20664
G1 X104.5 Y92.5 E0.55582
G1 X104.988 Y92.54 E0.58025
G1 X105.463 Y92.659 E0.60468
G1 X105.912 Y92.853 E0.62908
G1 X106.324 Y93.118 E0.65352
G1 X106.687 Y93.446 E0.67793
G1 X106.992 Y93.829 E0.70236
G1 X107.23 Y94.257 E0.72679
G1 X107.396 Y94.717 E0.75119
G1 X107.5 Y95.5 E0.7906
G1 X107.5 Y102.5 E1.13983
G1 X107.46 Y102.988 E1.16426
G1 X107.341 Y103.463 E1.18869
G1 X107.147 Y103.912 E1.21309
G1 X106.882 Y104.324 E1.23753
G1 X106.554 Y104.687 E1.26194
G1 X106.171 Y104.992 E1.28636
G1 X105.743 Y105.23 E1.3108
G1 X105.365 Y105.366 E1.33084
G1 X105.147 Y105.912 E1.36017
G1 X104.882 Y106.324 E1.38461
G1 X104.554 Y106.687 E1.40902
G1 X104.171 Y106.992 E1.43344
G1 X103.743 Y107.23 E1.45787
G1 X103.283 Y107.396 E1.48227
G1 X102.5 Y107.5 E1.52168
G1 X95.5 Y107.5 E1.87091
G1 X95.012 Y107.46 E1.89534
G1 X94.537 Y107.341 E1.91977
G1 X94.088 Y107.147 E1.94417
G1 X93.676 Y106.882 E1.96861
G1 X93.313 Y106.554 E1.99302
G1 X93.008 Y106.171 E2.01745
G1 X92.77 Y105.743 E2.04188
G1 X92.604 Y105.283 E2.06628
G1 X92.5 Y104.5 E2.10568
G1 X92.5 Y97.501 E2.45486
G1 X92.567 Y96.728 E2.49357
G1 X92.717 Y96.068 E2.52734
G1 X92.866 Y95.642 E2.54986
G1 X93.157 Y95.038 E2.58331
G1 X93.396 Y94.657 E2.60574
G1 X93.816 Y94.13 E2.63937
G0 F3600 X94.099 Y94.413
G1 F1800 X94.413 Y94.099 E2.66152
G1 X94.869 Y93.734 E2.69066
G1 X95.25 Y93.495 E2.7131
G1 X95.775 Y93.243 E2.74215
G1 X96.199 Y93.095 E2.76456
G1 X96.766 Y92.966 E2.79357
G1 X97.501 Y92.9 E2.83038
G1 X104.5 Y92.9 E3.17957
G1 X104.954 Y92.94 E3.2023
G1 X105.394 Y93.058 E3.22503
G1 X105.806 Y93.252 E3.24775
G1 X106.179 Y93.515 E3.27052
G1 X106.5 Y93.838 E3.29324
G1 X106.759 Y94.213 E3.31598
G1 X106.949 Y94.627 E3.3387
G1 X107.064 Y95.068 E3.36144
G1 X107.1 Y95.5 E3.38307
G1 X107.1 Y102.5 E3.7323
G1 X107.06 Y102.954 E3.75504
G1 X106.942 Y103.394 E3.77776
G1 X106.748 Y103.806 E3.80048
G1 X106.485 Y104.179 E3.82325
G1 X106.162 Y104.5 E3.84597
G1 X105.787 Y104.759 E3.86871
G1 X105.373 Y104.949 E3.89144
G1 X105.038 Y105.036 E3.9087
G1 X104.942 Y105.394 E3.92719
G1 X104.748 Y105.806 E3.94991
G1 X104.485 Y106.179 E3.97268
G1 X104.162 Y106.5 E3.9954
G1 X103.787 Y106.759 E4.01814
G1 X103.373 Y106.949 E4.04087
G1 X102.932 Y107.064 E4.0636
G1 X102.5 Y107.1 E4.08523
G1 X95.5 Y107.1 E4.43446
G1 X95.046 Y107.06 E4.4572
G1 X94.606 Y106.942 E4.47993
G1 X94.194 Y106.748 E4.50265
G1 X93.821 Y106.485 E4.52542
G1 X93.5 Y106.162 E4.54814
G1 X93.241 Y105.787 E4.57087
G1 X93.051 Y105.373 E4.5936
G1 X92.936 Y104.932 E4.61634
G1 X92.9 Y104.5 E4.63796
G1 X92.9 Y97.501 E4.98715
G1 X92.965 Y96.772 E5.02366
G1 X93.095 Y96.2 E5.05292
G1 X93.244 Y95.774 E5.07544
G1 X93.495 Y95.25 E5.10443
G1 X93.734 Y94.869 E5.12687
G1 X94.099 Y94.413 E5.15601
G0 F3600 X94.381 Y94.695
G1 F1800 X94.695 Y94.381 E5.17816
G1 X95.082 Y94.073 E5.20284
G1 X95.463 Y93.834 E5.22527
G1 X95.907 Y93.621 E5.24984
G1 X96.331 Y93.473 E5.27225
G1 X96.81 Y93.364 E5.29676
G1 X97.501 Y93.3 E5.33138
G1 X104.5 Y93.3 E5.68056
G1 X104.917 Y93.34 E5.70146
G1 X105.319 Y93.458 E5.72236
G1 X105.691 Y93.651 E5.74327
G1 X106.02 Y93.91 E5.76416
G1 X106.294 Y94.227 E5.78506
G1 X106.503 Y94.59 E5.80596
G1 X106.639 Y94.987 E5.8269
G1 X106.7 Y95.5 E5.85267
G1 X106.7 Y102.5 E6.2019
G1 X106.66 Y102.917 E6.2228
G1 X106.542 Y103.319 E6.2437
G1 X106.349 Y103.691 E6.26461
G1 X106.09 Y104.02 E6.2855
G1 X105.773 Y104.294 E6.30641
G1 X105.41 Y104.503 E6.3273
G1 X105.013 Y104.639 E6.34824
G1 X104.683 Y104.678 E6.36482
G1 X104.66 Y104.917 E6.3768
G1 X104.542 Y105.319 E6.3977
G1 X104.349 Y105.691 E6.41861
G1 X104.09 Y106.02 E6.4395
G1 X103.773 Y106.294 E6.4604
G1 X103.41 Y106.503 E6.4813
G1 X103.013 Y106.639 E6.50224
G1 X102.5 Y106.7 E6.52801
G1 X95.5 Y106.7 E6.87724
G1 X95.083 Y106.66 E6.89814
G1 X94.681 Y106.542 E6.91904
G1 X94.309 Y106.349 E6.93995
G1 X93.98 Y106.09 E6.96084
G1 X93.706 Y105.773 E6.98175
G1 X93.497 Y105.41 E7.00264
G1 X93.361 Y105.013 E7.02358
G1 X93.3 Y104.5 E7.04935
G1 X93.3 Y97.501 E7.39853
G1 X93.362 Y96.816 E7.43285
G1 X93.472 Y96.332 E7.45761
G1 X93.621 Y95.906 E7.48013
G1 X93.834 Y95.463 E7.50465
G1 X94.073 Y95.082 E7.52709
G1 X94.381 Y94.695 E7.55176
G0 F3600 X94.978 Y94.664
G1 F1800 X95.675 Y94.173 E7.5943
G1 X96.463 Y93.851 E7.63677
G1 X97.3 Y93.711 E7.67911
G1 X97.501 Y93.7 E7.68915
G1 X104.5 Y93.7 E8.03833
G1 X104.877 Y93.74 E8.05725
G1 X105.237 Y93.858 E8.07615
G1 X105.564 Y94.048 E8.09501
G1 X105.845 Y94.303 E8.11395
G1 X106.065 Y94.612 E8.13287
G1 X106.217 Y94.959 E8.15177
G1 X106.3 Y95.5 E8.17908
G1 X106.3 Y102.5 E8.52831
G1 X106.26 Y102.877 E8.54722
G1 X106.142 Y103.237 E8.56612
G1 X105.952 Y103.564 E8.58499
G1 X105.697 Y103.845 E8.60392
G1 X105.388 Y104.065 E8.62285
G1 X105.041 Y104.217 E8.64175
G1 X104.5 Y104.3 E8.66905
G1 X104.3 Y104.3 E8.67903
G1 X104.26 Y104.877 E8.70789
G1 X104.142 Y105.237 E8.72679
G1 X103.952 Y105.564 E8.74565
G1 X103.697 Y105.845 E8.76459
G1 X103.388 Y106.065 E8.78351
G1 X103.041 Y106.217 E8.80241
G1 X102.5 Y106.3 E8.82972
G1 X95.5 Y106.3 E9.17895
G1 X95.123 Y106.26 E9.19786
G1 X94.763 Y106.142 E9.21676
G1 X94.436 Y105.952 E9.23563
G1 X94.155 Y105.697 E9.25456
G1 X93.935 Y105.388 E9.27349
G1 X93.783 Y105.041 E9.29239
G1 X93.7 Y104.5 E9.31969
G1 X93.7 Y97.501 E9.66887
G1 X93.76 Y96.86 E9.70099
G1 X93.999 Y96.038 E9.7437
G1 X94.412 Y95.294 E9.78616
G1 X94.978 Y94.664 E9.82841
G0 F3600 X95.261 Y94.947
G1 F1800 X95.888 Y94.512 E9.86648
G1 X96.595 Y94.228 E9.90449
G1 X97.345 Y94.109 E9.94238
G1 X97.501 Y94.1 E9.95017
G1 X104.5 Y94.1 E10.29935
G1 X104.832 Y94.14 E10.31604
G1 X105.144 Y94.257 E10.33266
G1 X105.421 Y94.445 E10.34936
G1 X105.644 Y94.693 E10.366
G1 X105.803 Y94.987 E10.38268
G1 X105.9 Y95.5 E10.40873
G1 X105.9 Y102.5 E10.75796
G1 X105.86 Y102.832 E10.77464
G1 X105.743 Y103.144 E10.79126
G1 X105.555 Y103.421 E10.80797
G1 X105.307 Y103.644 E10.82461
G1 X105.013 Y103.803 E10.84128
G1 X104.5 Y103.9 E10.86733
G1 X103.9 Y103.9 E10.89726
G1 X103.9 Y104.5 E10.9272
G1 X103.86 Y104.832 E10.94388
G1 X103.743 Y105.144 E10.9605
G1 X103.555 Y105.421 E10.97721
G1 X103.307 Y105.644 E10.99385
G1 X103.013 Y105.803 E11.01052
G1 X102.5 Y105.9 E11.03657
G1 X95.5 Y105.9 E11.3858
G1 X95.168 Y105.86 E11.40248
G1 X94.856 Y105.743 E11.41911
G1 X94.579 Y105.555 E11.43581
G1 X94.356 Y105.307 E11.45245
G1 X94.197 Y105.013 E11.46912
G1 X94.1 Y104.5 E11.49517
G1 X94.1 Y97.501 E11.84435
G1 X94.157 Y96.904 E11.87427
G1 X94.377 Y96.17 E11.9125
G1 X94.751 Y95.507 E11.95048
G1 X95.261 Y94.947 E11.98827
G0 F3600 X95.09 Y95.72
G1 F1800 X95.544 Y95.23 E12.02159
G1 X96.101 Y94.851 E12.0552
G1 X96.726 Y94.606 E12.0887
G1 X97.389 Y94.506 E12.12215
G1 X97.501 Y94.5 E12.12774
G1 X104.5 Y94.5 E12.47692
G1 X104.779 Y94.54 E12.49099
G1 X105.036 Y94.656 E12.50505
G1 X105.251 Y94.839 E12.51914
G1 X105.405 Y95.075 E12.5332
G1 X105.5 Y95.5 E12.55493
G1 X105.5 Y102.5 E12.90416
G1 X105.46 Y102.779 E12.91822
G1 X105.344 Y103.036 E12.93229
G1 X105.161 Y103.251 E12.94637
G1 X104.925 Y103.405 E12.96043
G1 X104.5 Y103.5 E12.98216
G1 X103.76 Y103.5 E13.01908
G1 X103.576 Y103.551 E13.0286
G1 X103.51 Y103.66 E13.03496
G1 X103.5 Y103.755 E13.03972
G1 X103.5 Y104.5 E13.07689
G1 X103.46 Y104.779 E13.09095
G1 X103.344 Y105.036 E13.10502
G1 X103.161 Y105.251 E13.11911
G1 X102.925 Y105.405 E13.13317
G1 X102.5 Y105.5 E13.15489
G1 X95.5 Y105.5 E13.50412
G1 X95.221 Y105.46 E13.51819
G1 X94.964 Y105.344 E13.53225
G1 X94.749 Y105.161 E13.54634
G1 X94.595 Y104.925 E13.5604
G1 X94.5 Y104.5 E13.58213
G1 X94.5 Y97.501 E13.93131
G1 X94.555 Y96.948 E13.95903
G1 X94.754 Y96.302 E13.99276
G1 X95.09 Y95.72 E14.02628
G0 F3600 X95.429 Y95.932
G1 F1800 X95.827 Y95.513 E14.05512
G1 X96.313 Y95.19 E14.08423
G1 X96.858 Y94.984 E14.1133
G1 X97.434 Y94.904 E14.14231
G1 X97.501 Y94.9 E14.14566
G1 X104.5 Y94.9 E14.49484
G1 X104.715 Y94.94 E14.50575
G1 X104.901 Y95.053 E14.51661
G1 X105.034 Y95.226 E14.52749
G1 X105.1 Y95.5 E14.54155
G1 X105.1 Y102.5 E14.89079
G1 X105.06 Y102.715 E14.9017
G1 X104.947 Y102.901 E14.91255
G1 X104.774 Y103.034 E14.92344
G1 X104.5 Y103.1 E14.9375
G1 X103.732 Y103.1 E14.97582
G1 X103.442 Y103.162 E14.99061
G1 X103.235 Y103.326 E15.00379
G1 X103.117 Y103.57 E15.01731
G1 X103.1 Y103.729 E15.02529
G1 X103.1 Y104.5 E15.06375
G1 X103.06 Y104.715 E15.07466
G1 X102.947 Y104.901 E15.08552
G1 X102.774 Y105.034 E15.09641
G1 X102.5 Y105.1 E15.11047
G1 X95.5 Y105.1 E15.4597
G1 X95.285 Y105.06 E15.47061
G1 X95.099 Y104.947 E15.48147
G1 X94.966 Y104.774 E15.49236
G1 X94.9 Y104.5 E15.50642
G1 X94.9 Y97.501 E15.8556
G1 X94.953 Y96.992 E15.88113
G1 X95.132 Y96.434 E15.91037
G1 X95.429 Y95.932 E15.93947
G0 F3600 X95.796 Y96.11
G1 F1800 X96.145 Y95.768 E15.96384
G1 X96.566 Y95.509 E15.9885
G1 X97.034 Y95.351 E16.01315
G1 X97.501 Y95.3 E16.03658
G1 X104.5 Y95.3 E16.38577
G1 X104.619 Y95.339 E16.39201
G1 X104.7 Y95.5 E16.40101
G1 X104.7 Y102.5 E16.75024
G1 X104.661 Y102.619 E16.75648
G1 X104.5 Y102.7 E16.76548
G1 X103.714 Y102.7 E16.80469
G1 X103.479 Y102.726 E16.81649
G1 X103.075 Y102.92 E16.83884
G1 X102.802 Y103.263 E16.86072
G1 X102.726 Y103.48 E16.87219
G1 X102.7 Y103.714 E16.88393
G1 X102.7 Y104.5 E16.92315
G1 X102.661 Y104.619 E16.92939
G1 X102.5 Y104.7 E16.93839
G1 X95.5 Y104.7 E17.28762
G1 X95.381 Y104.661 E17.29386
G1 X95.3 Y104.5 E17.30286
G1 X95.301 Y97.479 E17.65314
G1 X95.36 Y96.992 E17.67761
G1 X95.529 Y96.526 E17.70234
G1 X95.796 Y96.11 E17.727
;MESH:PCB_Holder-Corner.stl
G0 F3600 X96.423 Y96.641
G0 X101.839 Y103.354
G0 X102.334 Y103.388
;TYPE:WALL-OUTER
G1 F1800 X102.3 Y103.689 E17.74211
G1 X102.3 Y104.3 E17.7726
G1 X95.7 Y104.3 E18.10187
G1 X95.7 Y97.513 E18.44048
G1 X95.746 Y97.1 E18.46121
G1 X95.881 Y96.716 E18.48152
G1 X96.093 Y96.378 E18.50142
G1 X96.378 Y96.093 E18.52153
G1 X96.716 Y95.881 E18.54144
G1 X97.1 Y95.746 E18.56174
G1 X97.513 Y95.7 E18.58247
G1 X104.3 Y95.7 E18.92108
G1 X104.3 Y102.3 E19.25035
G1 X103.689 Y102.3 E19.28084
G1 X103.388 Y102.334 E19.29595
G1 X103.092 Y102.438 E19.3116
G1 X102.826 Y102.605 E19.32727
G1 X102.605 Y102.826 E19.34286
G1 X102.438 Y103.092 E19.35853
G1 X102.334 Y103.388 E19.37419
G0 F3600 X102.312 Y103.587
G0 X101.942 Y103.298
;TYPE:WALL-INNER
G1 F1800 X101.9 Y103.9 E19.40429
G1 X96.1 Y103.9 E19.69366
G1 X96.1 Y97.539 E20.01101
G1 X96.139 Y97.187 E20.02868
G1 X96.242 Y96.893 E20.04422
G1 X96.408 Y96.629 E20.05978
G1 X96.629 Y96.408 E20.07537
G1 X96.893 Y96.242 E20.09093
G1 X97.187 Y96.139 E20.10647
G1 X97.539 Y96.1 E20.12414
G1 X103.9 Y96.1 E20.44149
G1 X103.9 Y101.9 E20.73085
G1 X103.298 Y101.942 E20.76096
G1 X102.917 Y102.075 E20.78109
G1 X102.575 Y102.29 E20.80125
G1 X102.29 Y102.575 E20.82136
G1 X102.075 Y102.917 E20.84151
G1 X101.942 Y103.298 E20.86164
G0 F3600 X101.845 Y103.278
G0 X99.7 Y100.072
;TYPE:SKIN
G1 F1800 X99.7 Y99.7 E20.8802
G1 X100.072 Y99.7 E20.89876
G1 X99.7 Y100.072 E20.92501
G0 F3600 X99.771 Y100.567
G1 F1800 X99.688 Y100.7 E20.93283
G1 X99.3 Y100.7 E20.95219
G1 X99.3 Y99.3 E21.02203
G1 X100.7 Y99.3 E21.09188
G1 X100.7 Y99.688 E21.11124
G1 X100.567 Y99.771 E21.11906
G1 X99.771 Y100.567 E21.17522
G0 F3600 X100.086 Y100.818
G1 F1800 X99.91 Y101.1 E21.1918
G1 X98.9 Y101.1 E21.24219
G1 X98.9 Y98.9 E21.35195
G1 X101.1 Y98.9 E21.46171
G1 X101.1 Y99.91 E21.5121
G1 X100.818 Y100.086 E21.52868
G1 X100.086 Y100.818 E21.58033
G0 F3600 X100.401 Y101.069
G1 F1800 X100.132 Y101.5 E21.60568
G1 X98.5 Y101.5 E21.6871
G1 X98.5 Y98.5 E21.83677
G1 X101.5 Y98.5 E21.98644
G1 X101.5 Y100.132 E22.06786
G1 X101.069 Y100.401 E22.09321
G1 X100.401 Y101.069 E22.14034
G0 F3600 X100.716 Y101.32
G1 F1800 X100.354 Y101.9 E22.17445
G1 X98.1 Y101.9 E22.2869
G1 X98.1 Y98.1 E22.47648
G1 X101.9 Y98.1 E22.66607
G1 X101.9 Y100.354 E22.77852
G1 X101.32 Y100.716 E22.81263
G1 X100.716 Y101.32 E22.85524
G0 F3600 X101.031 Y101.571
G1 F1800 X100.627 Y102.218 E22.8933
G1 X100.598 Y102.3 E22.89764
G1 X97.7 Y102.3 E23.04222
G1 X97.7 Y97.7 E23.27172
G1 X102.3 Y97.7 E23.50121
G1 X102.3 Y100.598 E23.64579
G1 X102.218 Y100.627 E23.65013
G1 X101.571 Y101.031 E23.68819
G1 X101.031 Y101.571 E23.72629
G0 F3600 X101.346 Y101.822
G1 F1800 X100.989 Y102.393 E23.75988
G1 X100.88 Y102.7 E23.77614
G1 X97.3 Y102.7 E23.95474
G1 X97.3 Y97.614 E24.20848
G1 X97.354 Y97.379 E24.22051
G1 X97.454 Y97.317 E24.22638
G1 X97.614 Y97.3 E24.23441
G1 X102.7 Y97.3 E24.48815
G1 X102.7 Y100.88 E24.66676
G1 X102.393 Y100.989 E24.68301
G1 X101.822 Y101.346 E24.71661
G1 X101.346 Y101.822 E24.75019
G0 F3600 X101.661 Y102.073
G1 F1800 X101.351 Y102.568 E24.77933
G1 X101.163 Y103.1 E24.80748
G1 X96.9 Y103.1 E25.02017
G1 X96.9 Y97.589 E25.29511
G1 X96.97 Y97.239 E25.31292
G1 X97.128 Y97.039 E25.32563
G1 X97.367 Y96.924 E25.33887
G1 X97.589 Y96.9 E25.35001
G1 X103.1 Y96.9 E25.62495
G1 X103.1 Y101.163 E25.83763
G1 X102.568 Y101.351 E25.86578
G1 X102.073 Y101.661 E25.89492
G1 X101.661 Y102.073 E25.92399
G0 F3600 X101.976 Y102.324
G1 F1800 X101.713 Y102.743 E25.94867
G1 X101.546 Y103.216 E25.9737
G1 X101.526 Y103.5 E25.9879
G1 X96.5 Y103.5 E26.23865
G1 X96.5 Y97.565 E26.53475
G1 X96.531 Y97.278 E26.54915
G1 X96.725 Y96.876 E26.57142
G1 X97.065 Y96.607 E26.59305
G1 X97.278 Y96.531 E26.60433
G1 X97.565 Y96.5 E26.61873
G1 X103.5 Y96.5 E26.91483
G1 X103.5 Y101.526 E27.16558
G1 X103.216 Y101.546 E27.17978
G1 X102.743 Y101.713 E27.20481
G1 X102.324 Y101.976 E27.22949
G1 X101.976 Y102.324 E27.25404
G0 F3600 X99.595 Y100.443
;TYPE:SKIN
G1 F1800 X99.515 Y100.363 E27.25687
G0 F3600 X100.363 Y99.515
G1 F1800 X100.443 Y99.594 E27.25967
;MESH:NONMESH
G0 F600 X100.443 Y99.594 Z0.4
G0 F3600 X101.845 Y103.278
G0 X101.942 Y103.298
;TIME_ELAPSED:21.304566
;LAYER:1
M106 S255
;TYPE:WALL-INNER
;MESH:PCB_Holder-Corner.stl
G1 F2700 X101.9 Y103.9 E27.26971
G1 X96.1 Y103.9 E27.36616
G1 X96.1 Y97.539 E27.47194
G1 X96.139 Y97.187 E27.47783
G1 X96.242 Y96.893 E27.48301
G1 X96.408 Y96.629 E27.4882
G1 X96.629 Y96.408 E27.4934
G1 X96.893 Y96.242 E27.49858
G1 X97.187 Y96.139 E27.50376
G1 X97.539 Y96.1 E27.50965
G1 X103.9 Y96.1 E27.61544
G1 X103.9 Y101.9 E27.71189
G1 X103.298 Y101.942 E27.72193
G1 X102.917 Y102.075 E27.72864
G1 X102.575 Y102.29 E27.73536
G1 X102.29 Y102.575 E27.74206
G1 X102.075 Y102.917 E27.74878
G1 X101.942 Y103.298 E27.75549
G0 F5400 X102.334 Y103.388
;TYPE:WALL-OUTER
G1 F1800 X102.3 Y103.689 E27.76053
G1 X102.3 Y104.3 E27.77069
G1 X95.7 Y104.3 E27.88045
G1 X95.7 Y97.513 E27.99331
G1 X95.746 Y97.1 E28.00022
G1 X95.881 Y96.716 E28.00699
G1 X96.093 Y96.378 E28.01363
G1 X96.378 Y96.093 E28.02033
G1 X96.716 Y95.881 E28.02697
G1 X97.1 Y95.746 E28.03374
G1 X97.513 Y95.7 E28.04065
G1 X104.3 Y95.7 E28.15351
G1 X104.3 Y102.3 E28.26327
G1 X103.689 Y102.3 E28.27343
G1 X103.388 Y102.334 E28.27847
G1 X103.092 Y102.438 E28.28369
G1 X102.826 Y102.605 E28.28891
G1 X102.605 Y102.826 E28.29411
G1 X102.438 Y103.092 E28.29933
G1 X102.334 Y103.388 E28.30455
G0 F5400 X102.312 Y103.587
G0 X101.825 Y103.553
G0 X99.7 Y100.072
;TYPE:SKIN
G1 F1800 X99.7 Y99.7 E28.31074
G1 X100.072 Y99.7 E28.31692
G1 X99.7 Y100.072 E28.32567
G0 F5400 X99.771 Y100.567
G1 F1800 X99.688 Y100.7 E28.32828
G1 X99.3 Y100.7 E28.33473
G1 X99.3 Y99.3 E28.35801
G1 X100.7 Y99.3 E28.3813
G1 X100.7 Y99.688 E28.38775
G1 X100.567 Y99.771 E28.39036
G1 X99.771 Y100.567 E28.40908
G0 F5400 X100.086 Y100.818
G1 F1800 X99.91 Y101.1 E28.4146
